X:1
T:Title
%%score { ( 1 3 ) | ( 2 4 ) }
L:1/8
M:4/4
K:D
V:1 treble nm="Grand Piano"
V:3 treble 
V:2 treble 
V:4 treble 
V:1
 z4 z[Q:1/4=92] AFG | z2 D[Fd] [Fd][Fc][FB][DF] | [EG]6 z2 | z2 C[FA] [Ac][GB][CFA]B | %4
 [DF]4- [DF]FFG | [FA]3 [DF] EDCD | [GB]4- [GB]dcB | %7
 [FA]F[K:bass][F,D][DE][K:treble] [A,DF]2 [G,CE]2 |[M:5/8][K:bass] [F,D]-[F,D]- [F,D]3 | %9
[M:3/8][K:treble] [DF][CEG][B,=F^G] |[M:4/4] [A,FA]3 [A,FA] [DFB][A,F] [DFB]>F | G4- GEEF | %12
 G3 [GB] cB c>B | [FA]4- [FA]F[EG][=F^G] | [FA]3 [Fd] [Fe][Fd] [Fe]>[Fd] | E3 E c>B cB | %16
[M:17/16] BAD3/2E[Q:1/4=79]F-<[Q:1/4=72]F[CE]-<[CE][Q:1/4=90][Q:1/4=89][Q:1/4=87][Q:1/4=85][Q:1/4=84][Q:1/4=82][Q:1/4=81][Q:1/4=77][Q:1/4=76][Q:1/4=74][Q:1/4=71] | %17
[M:5/8] D-D- D3 |] %18
V:2
 z4 z FDE | D,A,F,A, D,A,DA, | A,,A,G,A, A,,A,G,F, | E,A,G,A, A,,A,G,A, | D,F,B,F, A,DDE | %5
 D,A,DA, G,F,E,F, | G,,D,G,B,[K:treble] DBAG | z D z ^G, A,,2 A,,2 |[M:5/8] D,-D,- D,3 | %9
[M:3/8] D,D,D, |[M:4/4] D,3 D, D,D, D,>[D,A,] | [E,A,C]4- [E,A,C][A,C][G,A,C][F,A,D] | %12
 [E,A,C]3 [E,D][K:treble] [A,EG][A,DG] [A,EG]>[A,CG] | [D,D]4- [D,D][D,D][D,C][D,B,] | %14
 [D,A,]3 [D,A,] [D,A,][D,A,] [D,=C]>[D,C] | [G,B,D]3 [G,B,][K:treble] [^G,DE]>[G,DE] [G,DE][G,DE] | %16
[M:17/16] [A,DF][A,DF][K:bass][F,A,]3/2[G,B,D][A,D]-<[A,D][A,,G,]-<[A,,G,] | %17
[M:5/8] [D,F,]-[D,F,]- [D,F,]3 |] %18
V:3
 x8 | [FA]4 z4 | z2 .C2 z [CE][CE][DF] | [EG]4 z4 | x8 | x8 | x8 | x2[K:bass] x2[K:treble] x4 | %8
[M:5/8][K:bass] x5 |[M:3/8][K:treble] x3 |[M:4/4] x8 | x8 | x8 | x8 | x8 | x8 |[M:17/16] x17/2 | %17
[M:5/8] x5 |] %18
V:4
 x8 | x8 | x8 | x8 | x8 | x8 | x4[K:treble] x4 | [A,,A,]2 B,,2 z4 |[M:5/8] x5 |[M:3/8] x3 | %10
[M:4/4] x8 | x8 | x4[K:treble] x4 | x8 | x8 | x4[K:treble] x4 |[M:17/16] x2[K:bass] x13/2 | %17
[M:5/8] x5 |] %18

